src/lib/packages/icons/src/assets/line/video-slash.svg

<svg width="24" height="24" viewBox="0 0 24 24" fill="none" xmlns="http://www.w3.org/2000/svg">
<path d="M22.75 7.56008V16.44C22.75 17.022 22.424 17.541 21.8979 17.793C21.688 17.895 21.4639 17.9441 21.2429 17.9441C20.9119 17.9441 20.585 17.833 20.312 17.616L17.75 15.562V16C17.75 18.418 16.418 19.75 14 19.75H9C8.586 19.75 8.25 19.414 8.25 19C8.25 18.586 8.586 18.25 9 18.25H14C15.577 18.25 16.25 17.577 16.25 16V11C16.25 10.586 16.586 10.25 17 10.25C17.414 10.25 17.75 10.586 17.75 11V13.6399L21.249 16.4441L21.25 7.56008C20.856 7.59608 20.4751 7.27999 20.4441 6.86599C20.4141 6.45299 20.721 6.09303 21.134 6.06204C21.563 6.03304 21.9679 6.17794 22.2749 6.46194C22.5809 6.74694 22.75 7.13708 22.75 7.56008ZM21.53 3.53005L3.53003 21.5301C3.38403 21.6761 3.192 21.75 3 21.75C2.808 21.75 2.61597 21.6771 2.46997 21.5301C2.17697 21.2371 2.17697 20.762 2.46997 20.469L3.42798 19.511C2.01298 19.03 1.25098 17.826 1.25098 15.999V7.99905C1.25098 5.58105 2.58298 4.24905 5.00098 4.24905H14.001C15.489 4.24905 16.581 4.775 17.189 5.751L20.4709 2.46902C20.7639 2.17602 21.239 2.17602 21.532 2.46902C21.825 2.76202 21.823 3.23705 21.53 3.53005ZM4.70703 18.2329L16.072 6.86794C15.867 6.29094 15.38 5.75002 14 5.75002H5C3.423 5.75002 2.75 6.42302 2.75 8.00002V16C2.75 17.472 3.34603 18.1479 4.70703 18.2329Z" fill="currentColor"/>
</svg>

<svg xmlns="http://www.w3.org/2000/svg" width="24" height="24" fill="none"><path fill="currentColor" d="M22.75 7.56v8.88c0 .582-.326 1.101-.852 1.353a1.492 1.492 0 0 1-1.586-.177l-2.562-2.054V16c0 2.418-1.332 3.75-3.75 3.75H9a.75.75 0 0 1 0-1.5h5c1.577 0 2.25-.673 2.25-2.25v-5a.75.75 0 0 1 1.5 0v2.64l3.499 2.804.001-8.884a.76.76 0 0 1-.806-.694.75.75 0 0 1 .69-.804 1.51 1.51 0 0 1 1.14.4c.307.285.476.675.476 1.098Zm-1.22-4.03-18 18a.748.748 0 0 1-1.06 0 .75.75 0 0 1 0-1.061l.958-.958c-1.415-.481-2.177-1.685-2.177-3.512v-8c0-2.418 1.332-3.75 3.75-3.75h9c1.488 0 2.58.526 3.188 1.502l3.282-3.282A.75.75 0 1 1 21.53 3.53ZM4.707 18.233 16.072 6.868C15.867 6.29 15.38 5.75 14 5.75H5c-1.577 0-2.25.673-2.25 2.25v8c0 1.472.596 2.148 1.957 2.233Z"/></svg>
